X:20
T:501. Toss the Feathers 3
R:reel
S:Vol 5 Mike and Mary Rafferty
H:
N:Related to version #1
B:Breathnach (CRÉ III), 1985; No. 112, pg. 56. ?
D:Vol 5 Mike and Mary Rafferty; Kevin Burke
Z:Lesl
M:C|
L:1/8
K:Dmix
D2ED ADED | AB cA GE ~E2 | D2ED ADFA | d2 ed =cA GE|
D2ED ADED | AB cA GE ~E2 | cA BG A ~A2B|1 d2 ed =cA GE:|2 d2 ed =cA GG||
Az dc Addc | AB ^cd ed cd | ea a^g a2 a=g|ea ag ed (3Bcd |
efgg a2 {c}ge | faed cA AB | cA BG A ~A2B| d2 ed cA G2 |
Addc Addc | Az ^cd ed cd | ea a^g a2 a=g|ea ag ed (3Bcd |
efgg a2 {c}ge | ffed cA AB | cA BG A ~A2B| d2 ed cA GE | D8||


